X: 41911
T: Waiting For A Call
R: reel
M: 4/4
K: Edorian
B(E ~E2) B2 AF|{e}(3cBB AF AdAG|FDAD A,DAD|FAdA (3Bcd ed|
B(E ~E2) B2 AF|{e}(3cBB AF D3 z|afed fedB|1 AF (3(DEF) E3 d:|2 AF (3(DEF) E3:|
|:F|G2 GF GBdB|GABG AFDF|{A}G/G/G GF GABd|efga {a} b2 ef|
g2 (3(fga) gedB|(3(EFG) BG AFDF|EFGB {c}d2 (B/c/d)|1 DFAF GEE:|2 DFAF GEE z||
|:B2 ef gbef|dfaf dfbf|g3 a (3(bag) gf|gefd Beeg|
bg (3(efg) fedA|(3(Bcd) fe dBAF|EFGB {c}d2 (B/c/d)|DFAF GEE z:|

